24x24/apps/net.sourceforge.Fillets.svg

<svg height="24" width="24" xmlns="http://www.w3.org/2000/svg"><circle cx="12" cy="12.5" opacity=".2" r="10"/><circle cx="12" cy="12" fill="#4f4f4f" r="10"/><circle cx="12" cy="12.5" opacity=".2" r="8"/><circle cx="12" cy="12" fill="#ff0" r="8"/><circle cx="12" cy="12" fill="#4f4f4f" r="7"/><path d="m12.683 14.364c1.417-1.115 1.47-1.115 2.847 0 2.1 1.702 2.47 1.424 2.47-1.864s-.369-3.566-2.47-1.864c-1.377 1.115-1.43 1.115-2.847 0-.795-.625-2.083-1.136-2.864-1.136-1.426 0-3.819 1.88-3.819 3s2.393 3 3.82 3c.78 0 2.068-.511 2.863-1.136z" opacity=".2"/><path d="m12.683 13.864c1.417-1.115 1.47-1.115 2.847 0 2.1 1.702 2.47 1.424 2.47-1.864s-.369-3.566-2.47-1.864c-1.377 1.115-1.43 1.115-2.847 0-.795-.625-2.083-1.136-2.864-1.136-1.426 0-3.819 1.88-3.819 3s2.393 3 3.82 3c.78 0 2.068-.511 2.863-1.136z" fill="#ff0"/><path d="m7.838 12.75c-.933-.98.177-2.25 1.968-2.25.69 0 1.755.338 2.367.75 1.103.742 1.103.758 0 1.5-.612.413-1.677.75-2.367.75s-1.575-.337-1.968-.75z" fill="#4f4f4f"/><path d="m9.5 11.864c0-.35-.225-.468-.5-.264s-.5.49-.5.635c0 .146.225.265.5.265s.5-.286.5-.636z" opacity=".2"/><path d="m9.5 11.364c0-.35-.225-.468-.5-.264s-.5.49-.5.635c0 .146.225.265.5.265s.5-.286.5-.636z" fill="#ff0"/><path d="m15.896 12.748c-.574-.685-.539-.984.204-1.72.84-.83.9-.774.9.83 0 1.95-.128 2.053-1.104.89z" fill="#4f4f4f"/><path d="m12 2a10 10 0 0 0 -10 10 10 10 0 0 0 .01.291 10 10 0 0 1 9.99-9.791 10 10 0 0 1 9.99 9.709 10 10 0 0 0 .01-.209 10 10 0 0 0 -10-10z" fill="#f4f4f7" opacity=".1"/></svg>

<svg height="24" width="24" xmlns="http://www.w3.org/2000/svg">
    <circle cx="12" cy="12.5" opacity=".2" r="10"/>
    <circle cx="12" cy="12" fill="#4f4f4f" r="10"/>
    <circle cx="12" cy="12.5" opacity=".2" r="8"/>
    <circle cx="12" cy="12" fill="#ff0" r="8"/>
    <circle cx="12" cy="12" fill="#4f4f4f" r="7"/>
    <path d="M12.683 14.364c1.417-1.115 1.47-1.115 2.847 0C17.63 16.066 18 15.788 18 12.5s-.369-3.566-2.47-1.864c-1.377 1.115-1.43 1.115-2.847 0C11.888 10.011 10.6 9.5 9.819 9.5 8.393 9.5 6 11.38 6 12.5s2.393 3 3.82 3c.78 0 2.068-.511 2.863-1.136z" opacity=".2"/>
    <path d="M12.683 13.864c1.417-1.115 1.47-1.115 2.847 0C17.63 15.566 18 15.288 18 12s-.369-3.566-2.47-1.864c-1.377 1.115-1.43 1.115-2.847 0C11.888 9.511 10.6 9 9.819 9 8.393 9 6 10.88 6 12s2.393 3 3.82 3c.78 0 2.068-.511 2.863-1.136z" fill="#ff0"/>
    <path d="M7.838 12.75c-.933-.98.177-2.25 1.968-2.25.69 0 1.755.338 2.367.75 1.103.742 1.103.758 0 1.5-.612.413-1.677.75-2.367.75s-1.575-.337-1.968-.75z" fill="#4f4f4f"/>
    <path d="M9.5 11.864c0-.35-.225-.468-.5-.264s-.5.49-.5.635c0 .146.225.265.5.265s.5-.286.5-.636z" opacity=".2"/>
    <path d="M9.5 11.364c0-.35-.225-.468-.5-.264s-.5.49-.5.635c0 .146.225.265.5.265s.5-.286.5-.636z" fill="#ff0"/>
    <path d="M15.896 12.748c-.574-.685-.539-.984.204-1.72.84-.83.9-.774.9.83 0 1.95-.128 2.053-1.104.89z" fill="#4f4f4f"/>
    <path d="M12 2A10 10 0 0 0 2 12a10 10 0 0 0 .01.291A10 10 0 0 1 12 2.5a10 10 0 0 1 9.99 9.709A10 10 0 0 0 22 12 10 10 0 0 0 12 2z" fill="#f4f4f7" opacity=".1"/>
</svg>
